ii/camera-slr.svg

<svg xmlns="http://www.w3.org/2000/svg" viewBox="0 0 8 8" height="1em" width="1em">
  <path d="M4.09 0c-.05 0-.1.04-.13.09l-.94 1.81c-.02.05-.07.09-.13.09h-1.41c-.83 0-1.5.67-1.5 1.5v4.41c0 .05.04.09.09.09h7.81c.05 0 .09-.04.09-.09v-5.81c0-.06-.04-.09-.09-.09h-.81c-.05 0-.1-.04-.13-.09l-.94-1.81c-.03-.05-.07-.09-.13-.09h-1.81zm-2.59 3c.28 0 .5.22.5.5s-.22.5-.5.5-.5-.22-.5-.5.22-.5.5-.5zm3.5 0c1.1 0 2 .9 2 2s-.9 2-2 2-2-.9-2-2 .9-2 2-2zm0 1c-.55 0-1 .45-1 1s.45 1 1 1 1-.45 1-1-.45-1-1-1z"/>
</svg>

<svg xmlns="http://www.w3.org/2000/svg" viewBox="0 0 8 8" height="1em" width="1em">
  <path d="M4.09 0c-.05 0-.1.04-.13.09L3.02 1.9c-.02.05-.07.09-.13.09H1.48c-.83 0-1.5.67-1.5 1.5V7.9c0 .05.04.09.09.09h7.81c.05 0 .09-.04.09-.09V2.09c0-.06-.04-.09-.09-.09h-.81c-.05 0-.1-.04-.13-.09L6 .1C5.97.05 5.93.01 5.87.01H4.06zM1.5 3c.28 0 .5.22.5.5s-.22.5-.5.5-.5-.22-.5-.5.22-.5.5-.5zM5 3c1.1 0 2 .9 2 2s-.9 2-2 2-2-.9-2-2 .9-2 2-2zm0 1c-.55 0-1 .45-1 1s.45 1 1 1 1-.45 1-1-.45-1-1-1z"/>
</svg>
